X:24
T:Polska efter Bytt-Lasse
R:polska J
A:H\"alsingland
Z:id:hn-jp-24
M:3/4
L:1/16
K:Dm
A2d2 ABA^G G2A2|A2f2 efed d2^c2|^cdef g2ag f2d2|e2^c2 ABA^G B2A2|
A2d2 ABA^G G2A2|A2f2 efed d2^c2|^cdef g2ag f2d2|e2^c2 d8:|
|:A2a2 g4 e4|c=Bcd c8|cdef g2ag f2d2|e2^c2 ABA^G B2A2|
A2a2 g4 e4|c=Bcd c8|cdef g2ag f2d2|e2^c2 d8:|
